X:1
T:Twas Within a Furlong of Edinborough Town.  WCD3/1.037
T:Twas Within a Furlong of Edinborough Town.  WCD3/1.037
T:Henry Purcell
C:Henry Purcell
L:1/8
Q:1/2=90
M:2/2
K:Gmin
V:1 treble 
V:1
 GA | B3 c d2 (cB) | (cA) (dB) G2 (GA) | B>c d>e f2 (ed) | c<B f<d B2 d=e | f>=e f>g f2 (_ed) | %6
 (ed) (cB) c2 (Bc) | (dB) (cA) (BG) (AG) | (^FD) (FA) d2 || de | f3 g (gf) (ed) | (ed) (cB) c2 A2 | %12
 (BA) (Bc) d2 (cB) | AG ^F>G A2 A/B/c | (BA) (BA) c2 (de) | (fd) (g=e) ^f3 f | %16
 (g<d) (e<c) (d<B) (c<A) | (B<G) (D<^F) G2 || %18

